assets/azuremachinelearningstudiowebserviceplans/original.svg

<svg height="18" viewBox="0 0 18 18" width="18" xmlns="http://www.w3.org/2000/svg" xmlns:xlink="http://www.w3.org/1999/xlink"><linearGradient id="a" gradientUnits="userSpaceOnUse" x1="9.83" x2="9.83" y1="1.59" y2="8.94"><stop offset="0" stop-color="#fff"/><stop offset=".56" stop-color="#fbfbfb"/><stop offset="1" stop-color="#f2f2f2"/></linearGradient><linearGradient id="b" gradientUnits="userSpaceOnUse" x1="5.71" x2="5.82" y1="7.13" y2="17.51"><stop offset="0" stop-color="#32d4f5"/><stop offset=".32" stop-color="#31d1f3"/><stop offset=".53" stop-color="#2ec9eb"/><stop offset=".7" stop-color="#29bade"/><stop offset=".86" stop-color="#22a5cb"/><stop offset="1" stop-color="#198ab3"/></linearGradient><path d="m9.83.52c4.62 0 7.44 3.48 7.67 8.13a1.19 1.19 0 0 1 -1.19 1.25h-13a1.18 1.18 0 0 1 -1.15-1.25c.23-4.65 3.05-8.13 7.67-8.13" fill="#0078d4"/><path d="m3.34 9.11a.39.39 0 0 1 -.34-.42c.17-4.49 3.26-7.38 6.83-7.38s6.66 2.89 6.88 7.38a.47.47 0 0 1 -.11.3.44.44 0 0 1 -.29.12z" fill="url(#a)"/><path d="m13.55 3.79a5.62 5.62 0 0 0 -3.33-1.42v2.63a3.07 3.07 0 0 1 1.55.66z" fill="#5ea0ef"/><path d="m6.11 3.79 1.78 1.83a3 3 0 0 1 1.54-.62v-2.63a5.57 5.57 0 0 0 -3.32 1.42" fill="#0078d4"/><path d="m12.33 6.2a3.3 3.3 0 0 1 .67 1.58h2.52a5.9 5.9 0 0 0 -1.38-3.41z" fill="#5ea0ef"/><path d="m7.33 6.2-1.78-1.83a5.84 5.84 0 0 0 -1.38 3.41h2.51a3.4 3.4 0 0 1 .65-1.58m7.13-.57a.42.42 0 0 0 -.52-.23l-3.71 1.48.29.74 3.71-1.48a.41.41 0 0 0 .23-.51" fill="#005ba1"/><circle cx="9.83" cy="7.42" fill="#767676" r="1.08"/><path d="m10.73 17.43h-9.84c-.31 0-.5-.5-.32-.76l3.43-4.94a.4.4 0 0 0 0-.22v-3.27a.2.2 0 0 0 -.16-.24h-.19a.39.39 0 0 1 -.39-.39v-.13a.39.39 0 0 1 .39-.39h4.35a.38.38 0 0 1 .39.39v.17a.38.38 0 0 1 -.39.35h-.21a.2.2 0 0 0 -.2.2v3.27a.4.4 0 0 0 .07.22l3.4 4.94c.17.3-.01.8-.33.8" fill="url(#b)"/><path d="m2.19 16 2.46-3.6a.86.86 0 0 0 .16-.51v-1.46a.29.29 0 0 1 .29-.29h1.4a.28.28 0 0 1 .28.29v1.57a.6.6 0 0 0 .11.34l2.52 3.66a.21.21 0 0 1 -.18.33h-6.87a.21.21 0 0 1 -.17-.33" fill="#fff"/></svg>

<svg xmlns="http://www.w3.org/2000/svg" width="18" height="18" viewBox="0 0 18 18"><linearGradient id="a" x1="9.83" x2="9.83" y1="1.59" y2="8.94" gradientUnits="userSpaceOnUse"><stop offset="0" stop-color="#fff"/><stop offset=".56" stop-color="#fbfbfb"/><stop offset="1" stop-color="#f2f2f2"/></linearGradient><linearGradient id="b" x1="5.71" x2="5.82" y1="7.13" y2="17.51" gradientUnits="userSpaceOnUse"><stop offset="0" stop-color="#32d4f5"/><stop offset=".32" stop-color="#31d1f3"/><stop offset=".53" stop-color="#2ec9eb"/><stop offset=".7" stop-color="#29bade"/><stop offset=".86" stop-color="#22a5cb"/><stop offset="1" stop-color="#198ab3"/></linearGradient><path fill="#0078d4" d="M9.83.52c4.62 0 7.44 3.48 7.67 8.13a1.19 1.19 0 0 1-1.19 1.25h-13a1.18 1.18 0 0 1-1.15-1.25C2.39 4 5.21.52 9.83.52"/><path fill="url(#a)" d="M3.34 9.11A.39.39 0 0 1 3 8.69c.17-4.49 3.26-7.38 6.83-7.38s6.66 2.89 6.88 7.38a.47.47 0 0 1-.11.3.44.44 0 0 1-.29.12z"/><path fill="#5ea0ef" d="M13.55 3.79a5.62 5.62 0 0 0-3.33-1.42V5a3.07 3.07 0 0 1 1.55.66z"/><path fill="#0078d4" d="m6.11 3.79 1.78 1.83A3 3 0 0 1 9.43 5V2.37a5.57 5.57 0 0 0-3.32 1.42"/><path fill="#5ea0ef" d="M12.33 6.2A3.3 3.3 0 0 1 13 7.78h2.52a5.9 5.9 0 0 0-1.38-3.41z"/><path fill="#005ba1" d="M7.33 6.2 5.55 4.37a5.84 5.84 0 0 0-1.38 3.41h2.51a3.4 3.4 0 0 1 .65-1.58m7.13-.57a.42.42 0 0 0-.52-.23l-3.71 1.48.29.74 3.71-1.48a.41.41 0 0 0 .23-.51"/><circle cx="9.83" cy="7.42" r="1.08" fill="#767676"/><path fill="url(#b)" d="M10.73 17.43H.89c-.31 0-.5-.5-.32-.76L4 11.73a.4.4 0 0 0 0-.22V8.24A.2.2 0 0 0 3.84 8h-.19a.39.39 0 0 1-.39-.39v-.13a.39.39 0 0 1 .39-.39H8a.38.38 0 0 1 .39.39v.17A.38.38 0 0 1 8 8h-.21a.2.2 0 0 0-.2.2v3.27a.4.4 0 0 0 .07.22l3.4 4.94c.17.3-.01.8-.33.8"/><path fill="#fff" d="m2.19 16 2.46-3.6a.86.86 0 0 0 .16-.51v-1.46a.29.29 0 0 1 .29-.29h1.4a.28.28 0 0 1 .28.29V12a.6.6 0 0 0 .11.34L9.41 16a.21.21 0 0 1-.18.33H2.36a.21.21 0 0 1-.17-.33"/></svg>
